X: 1
T: Laura's Favourite
M: 4/4
L: 1/8
R: reel
K: Gmaj
f |: gdBd cBcA | (3Bcd BG FDDC | B,CDE FGAB | c2 cB cAFA |
 (3BAG GF GDB,D | CEED DEFG | AGAB cdeg |1 (3fed cA G2 Bd :|2 (3fed cA G2 B2 ||
dggf gdBd | ec (3ccc  dBGB | Aaag abag | fgag fdcA |
 (3Bcd Bd cA (3AAA | BG (3GGG AFDE |  FGAB cdeg |1 (3fed cA GABc :|2 (3fed cA G4 ||
